icons/op-play-24.svg

<svg width="24" height="24" viewBox="0 0 24 24" fill="none" xmlns="http://www.w3.org/2000/svg">
<path d="M17.6471 6.35294C14.5412 3.21569 9.45882 3.21569 6.35294 6.35294C3.21569 9.45882 3.21569 14.5412 6.35294 17.6471C9.45882 20.7843 14.5412 20.7843 17.6471 17.6471C20.7843 14.5412 20.7843 9.45882 17.6471 6.35294ZM13.3176 14.3216L9.33333 16.6745V7.32549L13.3176 9.67843L17.3333 12L13.3176 14.3216Z" fill="black"/>
</svg>

<svg xmlns="http://www.w3.org/2000/svg" width="24" height="24" viewBox="0 0 24 24"><path d="M17.647 6.353c-3.106-3.137-8.188-3.137-11.294 0-3.137 3.106-3.137 8.188 0 11.294 3.106 3.137 8.188 3.137 11.294 0 3.137-3.106 3.137-8.188 0-11.294Zm-4.329 7.969-3.985 2.352V7.325l3.985 2.353L17.333 12l-4.015 2.322Z"/></svg>
